assets/svg/icon_post_regulartext_off.svg

<svg width="24" height="24" viewBox="0 0 24 24" fill="none" xmlns="http://www.w3.org/2000/svg">
<path d="M12 19.4C10.0974 19.4 8.73084 19.3987 7.69086 19.2589C6.66814 19.1214 6.05156 18.8599 5.59584 18.4042L4.74731 19.2527C5.46316 19.9685 6.37518 20.2928 7.53096 20.4482C8.66949 20.6013 10.1313 20.6 12 20.6V19.4ZM3.4 12C3.4 13.8687 3.39873 15.3305 3.5518 16.469C3.70719 17.6248 4.03146 18.5368 4.74731 19.2527L5.59584 18.4042C5.14011 17.9484 4.8786 17.3319 4.7411 16.3091C4.60127 15.2692 4.6 13.9026 4.6 12H3.4ZM19.4 12C19.4 13.9026 19.3987 15.2692 19.2589 16.3091C19.1214 17.3319 18.8599 17.9484 18.4042 18.4042L19.2527 19.2527C19.9685 18.5368 20.2928 17.6248 20.4482 16.469C20.6013 15.3305 20.6 13.8687 20.6 12H19.4ZM12 20.6C13.8687 20.6 15.3305 20.6013 16.469 20.4482C17.6248 20.2928 18.5368 19.9685 19.2527 19.2527L18.4042 18.4042C17.9484 18.8599 17.3319 19.1214 16.3091 19.2589C15.2692 19.3987 13.9026 19.4 12 19.4V20.6ZM12 4.6C13.9026 4.6 15.2692 4.60127 16.3091 4.7411C17.3319 4.8786 17.9484 5.14011 18.4042 5.59584L19.2527 4.74731C18.5368 4.03146 17.6248 3.70719 16.469 3.5518C15.3305 3.39873 13.8687 3.4 12 3.4V4.6ZM20.6 12C20.6 10.1313 20.6013 8.66949 20.4482 7.53096C20.2928 6.37518 19.9685 5.46316 19.2527 4.74731L18.4042 5.59584C18.8599 6.05156 19.1214 6.66814 19.2589 7.69086C19.3987 8.73084 19.4 10.0974 19.4 12H20.6ZM12 3.4C10.1313 3.4 8.66949 3.39873 7.53096 3.5518C6.37518 3.70719 5.46316 4.03146 4.74731 4.74731L5.59584 5.59584C6.05156 5.14011 6.66814 4.8786 7.69086 4.7411C8.73084 4.60127 10.0974 4.6 12 4.6V3.4ZM4.6 12C4.6 10.0974 4.60127 8.73084 4.7411 7.69086C4.8786 6.66814 5.14011 6.05156 5.59584 5.59584L4.74731 4.74731C4.03146 5.46316 3.70719 6.37518 3.5518 7.53096C3.39873 8.66949 3.4 10.1313 3.4 12H4.6Z" fill="#0166FF"/>
<path d="M14.6008 10.2C14.6008 10.5314 14.8694 10.8 15.2008 10.8C15.5322 10.8 15.8008 10.5314 15.8008 10.2H14.6008ZM8.20078 10.2C8.20078 10.5314 8.46941 10.8 8.80078 10.8C9.13215 10.8 9.40078 10.5314 9.40078 10.2H8.20078ZM10.0008 15.4C9.66941 15.4 9.40078 15.6686 9.40078 16C9.40078 16.3314 9.66941 16.6 10.0008 16.6V15.4ZM14.4008 16.6C14.7322 16.6 15.0008 16.3314 15.0008 16C15.0008 15.6686 14.7322 15.4 14.4008 15.4V16.6ZM10.4008 8.6H12.0008V7.4H10.4008V8.6ZM12.0008 8.6H13.6008V7.4H12.0008V8.6ZM12.6008 16V8H11.4008V16H12.6008ZM14.6008 9.77778V10.2H15.8008V9.77778H14.6008ZM8.20078 9.77778V10.2H9.40078V9.77778H8.20078ZM13.6008 8.6C13.9967 8.6 14.2267 8.60157 14.39 8.62596C14.4634 8.63694 14.4975 8.64944 14.5108 8.65552C14.5192 8.65932 14.519 8.66002 14.5205 8.66173L15.4124 7.85897C15.1688 7.58824 14.864 7.48345 14.5672 7.43913C14.2948 7.39843 13.9591 7.4 13.6008 7.4V8.6ZM15.8008 9.77778C15.8008 9.37406 15.8018 9.01687 15.7671 8.73035C15.7311 8.43248 15.648 8.12065 15.4124 7.85897L14.5205 8.66173C14.5226 8.66412 14.5295 8.67151 14.5393 8.69777C14.5506 8.72838 14.5646 8.7818 14.5758 8.8745C14.5997 9.07209 14.6008 9.34345 14.6008 9.77778H15.8008ZM10.4008 7.4C10.0424 7.4 9.70673 7.39843 9.43432 7.43913C9.1376 7.48345 8.83278 7.58824 8.58912 7.85897L9.48107 8.66173C9.48261 8.66002 9.48241 8.65932 9.49072 8.65552C9.50402 8.64944 9.53813 8.63694 9.61161 8.62596C9.7749 8.60157 10.0049 8.6 10.4008 8.6V7.4ZM9.40078 9.77778C9.40078 9.34345 9.40182 9.07209 9.42573 8.8745C9.43694 8.7818 9.45097 8.72838 9.4623 8.69777C9.47202 8.67151 9.47892 8.66412 9.48107 8.66173L8.58912 7.85897C8.35361 8.12065 8.27046 8.43248 8.23442 8.73035C8.19975 9.01687 8.20078 9.37406 8.20078 9.77778H9.40078ZM10.0008 16.6H12.0008V15.4H10.0008V16.6ZM12.0008 16.6H14.4008V15.4H12.0008V16.6Z" fill="#0166FF"/>
</svg>

<svg xmlns="http://www.w3.org/2000/svg" width="24" height="24" fill="none"><path fill="#0166FF" d="M12 19.4c-1.903 0-3.27-.001-4.31-.141-1.022-.138-1.638-.4-2.094-.855l-.849.849c.716.715 1.628 1.04 2.784 1.195 1.138.153 2.6.152 4.469.152zM3.4 12c0 1.869-.001 3.33.152 4.469.155 1.156.48 2.068 1.195 2.784l.849-.849c-.456-.456-.717-1.072-.855-2.095C4.601 15.27 4.6 13.903 4.6 12zm16 0c0 1.903-.001 3.27-.141 4.31-.138 1.022-.4 1.638-.855 2.094l.849.849c.715-.716 1.04-1.628 1.195-2.784.153-1.139.152-2.6.152-4.469zM12 20.6c1.869 0 3.33.001 4.469-.152 1.156-.155 2.068-.48 2.784-1.195l-.849-.849c-.456.456-1.072.717-2.095.855-1.04.14-2.406.141-4.309.141zm0-16c1.903 0 3.27.001 4.31.141 1.022.138 1.638.4 2.094.855l.849-.849c-.716-.716-1.628-1.04-2.784-1.195C15.33 3.399 13.869 3.4 12 3.4zm8.6 7.4c0-1.869.001-3.33-.152-4.469-.155-1.156-.48-2.068-1.195-2.784l-.849.849c.456.456.717 1.072.855 2.095.14 1.04.141 2.406.141 4.309zM12 3.4c-1.869 0-3.33-.001-4.469.152-1.156.155-2.068.48-2.784 1.195l.849.849c.456-.456 1.072-.717 2.095-.855C8.73 4.601 10.097 4.6 12 4.6zM4.6 12c0-1.903.001-3.27.141-4.31.138-1.022.4-1.638.855-2.094l-.849-.849c-.716.716-1.04 1.628-1.195 2.784C3.399 8.669 3.4 10.131 3.4 12zM14.6 10.2a.6.6 0 1 0 1.2 0zm-6.4 0a.6.6 0 1 0 1.2 0zm1.8 5.2a.6.6 0 1 0 0 1.2zm4.4 1.2a.6.6 0 1 0 0-1.2zm-4-8H12V7.4h-1.6zm1.6 0h1.6V7.4H12zm.6 7.4V8h-1.2v8zm2-6.222v.422h1.2v-.422zm-6.4 0v.422h1.2v-.422zM13.6 8.6c.397 0 .627.002.79.026a.5.5 0 0 1 .12.03c.01.003.009.004.01.006l.892-.803c-.243-.27-.548-.376-.845-.42-.272-.04-.608-.039-.966-.039zm2.2 1.178c0-.404.002-.761-.033-1.048-.036-.298-.119-.61-.355-.871l-.892.803c.003.002.01.01.02.036.01.03.025.084.036.176.024.198.025.47.025.904zM10.4 7.4c-.358 0-.693-.002-.966.04-.296.043-.601.148-.845.419l.892.803c.002-.002.001-.003.01-.006a.5.5 0 0 1 .12-.03c.164-.024.394-.026.79-.026zm-1 2.378c0-.435.002-.706.026-.904a1 1 0 0 1 .036-.176c.01-.026.017-.034.02-.036l-.893-.803c-.235.262-.319.573-.355.871-.034.287-.033.644-.033 1.048zM10 16.6h2v-1.2h-2zm2 0h2.4v-1.2H12z"/></svg>
